client/public/img/misc/mouse3_icon.svg

<?xml version="1.0" encoding="UTF-8" standalone="no"?>
<svg
   width="18"
   height="26"
   viewBox="0 0 18 26"
   fill="none"
   version="1.1"
   id="svg6"
   xmlns="http://www.w3.org/2000/svg"
   xmlns:svg="http://www.w3.org/2000/svg">
  <defs
     id="defs6" />
  <path
     d="M0.909934 19.1929L2.21673 18.7783C2.53713 19.8187 3.00756 20.8336 3.60498 21.7488L2.30839 22.2852C2.19943 22.3433 2.1423 22.3516 2.05101 22.182L0.821972 19.4358C0.76384 19.2863 0.769053 19.2326 0.909934 19.1929Z"
     fill="#FF0000"
     id="path1" />
  <path
     d="M0.651655 14.3779H1.75678C1.73648 14.8336 1.72847 15.2782 1.72847 15.679C1.72847 16.6073 1.87229 17.5758 2.14244 18.528L0.821888 18.6572C0.701507 18.6681 0.646585 18.6549 0.643174 18.4833L0.469139 14.5735C0.464845 14.4365 0.49424 14.3851 0.651655 14.3779Z"
     fill="#333333"
     id="path2" />
  <path
     d="M16.5887 7.8322C16.7518 8.91717 16.9245 10.0653 17.188 11.2402H11.3525V0.265625C15.5339 0.816587 15.9993 3.91203 16.5887 7.8322Z"
     fill="#333333"
     id="path3" />
  <path
     d="M10.9101 0.217584V11.2397H8.91895V0.217588C9.23132 0.191218 9.56274 0.177734 9.91454 0.177734C10.2663 0.177734 10.5977 0.191217 10.9101 0.217584Z"
     fill="#333333"
     id="path4" />
  <path
     d="M8.47606 0.265625V11.2402H2.64062C2.90415 10.0653 3.07677 8.91719 3.23989 7.83223C3.82931 3.91205 4.29473 0.816603 8.47606 0.265625Z"
     fill="#333333"
     id="path5" />
  <path
     d="M17.3184 11.7932C17.3092 11.7563 17.3001 11.7195 17.2912 11.6826H2.53735L2.53428 11.6952C2.52892 11.7171 2.52354 11.7391 2.51812 11.761L2.51012 11.7932C2.24766 12.8488 2.1709 14.4494 2.1709 15.6791C2.1709 19.946 5.36603 25.1754 9.92001 25.1782C14.474 25.1754 17.6576 19.946 17.6576 15.6791C17.6576 14.4494 17.5809 12.8488 17.3184 11.7932Z"
     fill="#333333"
     id="path6" />
</svg>

<svg xmlns="http://www.w3.org/2000/svg" width="18" height="26" fill="none"><path fill="red" d="m.91 19.193 1.307-.415c.32 1.04.79 2.056 1.388 2.97l-1.297.537c-.109.058-.166.067-.257-.103L.822 19.436c-.058-.15-.053-.203.088-.243"/><path fill="#333" d="M.652 14.378h1.105c-.02.456-.029.9-.029 1.301 0 .928.144 1.897.414 2.849l-1.32.13c-.12.01-.175-.003-.179-.175l-.174-3.91c-.004-.136.025-.188.183-.195m15.937-6.546c.163 1.085.335 2.233.599 3.408h-5.835V.266c4.18.55 4.646 3.646 5.236 7.566M10.91.218V11.24H8.92V.218q.468-.04.996-.04.527 0 .995.04M8.476.266V11.24H2.641c.263-1.175.436-2.323.599-3.408C3.83 3.912 4.295.817 8.476.266m8.842 11.527-.027-.11H2.537l-.003.012-.016.066-.008.032c-.262 1.056-.34 2.656-.34 3.886 0 4.267 3.196 9.496 7.75 9.5 4.554-.004 7.738-5.233 7.738-9.5 0-1.23-.077-2.83-.34-3.886"/></svg>
